storage/app/icons/tabler/filled/files.svg

<!--
unicode: "10190"
version: "3.35"
-->
<svg
  xmlns="http://www.w3.org/2000/svg"
  width="24"
  height="24"
  viewBox="0 0 24 24"
  fill="currentColor"
>
  <path d="M11 2l3 .001v5.999a1 1 0 0 0 .883 .993l.117 .007h6v6a3 3 0 0 1 -3 3h-1v1a3 3 0 0 1 -3 3h-7a3 3 0 0 1 -3 -3v-10a3 3 0 0 1 3 -3h1v-1a3 3 0 0 1 3 -3m-3 6h-1a1 1 0 0 0 -1 1v10a1 1 0 0 0 1 1h7a1 1 0 0 0 1 -1v-1h-4a3 3 0 0 1 -3 -3zm12.415 -1h-4.415v-4.415z" />
</svg>

<svg xmlns="http://www.w3.org/2000/svg" width="24" height="24" fill="currentColor" viewBox="0 0 24 24"><path d="m11 2 3 .001V8a1 1 0 0 0 .883.993L15 9h6v6a3 3 0 0 1-3 3h-1v1a3 3 0 0 1-3 3H7a3 3 0 0 1-3-3V9a3 3 0 0 1 3-3h1V5a3 3 0 0 1 3-3M8 8H7a1 1 0 0 0-1 1v10a1 1 0 0 0 1 1h7a1 1 0 0 0 1-1v-1h-4a3 3 0 0 1-3-3zm12.415-1H16V2.585z"/></svg>
